X:85
T:The Old Wheels of the World
R:Reel
S:Liam O'Flynn (pipes)
D:Tape of concert, Belfast 1987
Z:Bernie Stocks
M:4/4
K:G
gf || eA~A2 eABA | GE~E2 G3E | A3B cBcd | efge d2gf | eA~A2 eABA |
GE~E2 G3E | A3B cBcd | efge d2Bc || dg~g2 dg~g2 | ea~a2 ea~a2 | efge defg |
afge d2Bc |dg~g2 dg~g2 | ea~a2 ea~a2 | efge defg | afge d2gf ||
<end>
<start>
